src/icons/package-install.svg

<?xml version="1.0" encoding="UTF-8"?>
<svg xmlns="http://www.w3.org/2000/svg" xmlns:xlink="http://www.w3.org/1999/xlink" width="35.182999" height="32" viewBox="0 0 35.182999 32" version="1.1">
<g id="surface1">
<path style=" stroke:none;fill-rule:nonzero;fill:rgb(25.098041%,25.098041%,25.490198%);fill-opacity:1;" d="M 22.335938 27.589844 L 15.898438 27.589844 L 14.539062 30.398438 L 12.6875 30.398438 L 12.6875 32 L 25.542969 32 L 25.542969 30.398438 L 23.695312 30.398438 Z M 33.542969 5.527344 L 10.46875 5.527344 L 10.46875 7.199219 L 33.511719 7.199219 L 33.511719 24.738281 L 4.722656 24.738281 L 4.722656 17.863281 L 3.050781 17.863281 L 3.050781 24.769531 C 3.054688 25.675781 3.789062 26.40625 4.691406 26.40625 L 33.542969 26.40625 C 34.449219 26.40625 35.183594 25.675781 35.183594 24.769531 L 35.183594 7.164062 C 35.183594 6.257812 34.449219 5.527344 33.542969 5.527344 M 3.984375 15.96875 L 7.972656 11.988281 L 5.644531 11.988281 C 5.640625 11.914062 5.636719 11.839844 5.636719 11.765625 C 5.636719 11.3125 5.699219 10.855469 5.820312 10.414062 C 6.234375 8.976562 7.269531 7.796875 8.644531 7.199219 C 8.660156 7.191406 8.671875 7.1875 8.6875 7.179688 C 9.035156 7.035156 9.421875 6.984375 9.679688 6.675781 C 9.792969 6.542969 9.851562 6.351562 9.777344 6.191406 C 9.648438 5.902344 9.242188 5.910156 8.976562 5.882812 C 7.894531 5.785156 6.804688 5.976562 5.820312 6.433594 C 4.648438 6.984375 3.679688 7.886719 3.050781 9.015625 C 2.855469 9.371094 2.695312 9.738281 2.570312 10.121094 C 2.378906 10.726562 2.28125 11.355469 2.28125 11.988281 L 0 11.988281 L 2.570312 14.554688 Z M 12.6875 19.144531 L 18.699219 22.605469 L 18.699219 16.738281 L 12.6875 13.273438 Z M 25.542969 19.144531 L 25.542969 13.273438 L 19.535156 16.738281 L 19.535156 22.605469 Z M 13.105469 12.550781 L 19.117188 16.015625 L 25.128906 12.550781 L 19.117188 9.085938 Z M 13.105469 12.550781 "/>
</g>
</svg>

<svg role="img" viewBox="0 0 35.183 32" xmlns="http://www.w3.org/2000/svg"><path d="M22.336 27.59h-6.438l-1.359 2.808h-1.851V32h12.855v-1.602h-1.848ZM33.543 5.527H10.469V7.2h23.043v17.54H4.722v-6.876h-1.67v6.907a1.64 1.64 0 0 0 1.64 1.636h28.852a1.64 1.64 0 0 0 1.64-1.636V7.164a1.64 1.64 0 0 0-1.64-1.637M3.984 15.969l3.989-3.98H5.645c-.004-.075-.008-.15-.008-.223 0-.453.062-.91.183-1.352A5.021 5.021 0 0 1 8.645 7.2c.015-.008.027-.011.043-.02.347-.144.734-.195.992-.503.113-.133.172-.324.097-.485-.129-.289-.535-.28-.8-.308a6.176 6.176 0 0 0-3.156.55 6.187 6.187 0 0 0-2.77 2.583 6.309 6.309 0 0 0-.48 1.105 6.169 6.169 0 0 0-.29 1.867H0l2.57 2.567Zm8.704 3.176 6.011 3.46v-5.867l-6.012-3.465Zm12.855 0v-5.872l-6.008 3.465v5.867ZM13.105 12.55l6.012 3.466 6.012-3.465-6.012-3.465Zm0 0" style="stroke:none;fill-rule:nonzero;fill:rgb(25.098041%,25.098041%,25.490198%);fill-opacity:1"/></svg>
